pro/src/icons/full-download.svg

<svg width="48" height="48" viewBox="0 0 48 48" fill="none" xmlns="http://www.w3.org/2000/svg">
<path id="icon" fill-rule="evenodd" clip-rule="evenodd" d="M5 10.7C5 7.55198 7.55198 5 10.7 5H37.3C40.448 5 43 7.55198 43 10.7V37.3C43 40.448 40.448 43 37.3 43H10.7C7.55198 43 5 40.448 5 37.3V10.7ZM31.5 35C32.3284 35 33 35.6716 33 36.5C33 37.3284 32.3284 38 31.5 38H16.5C15.6716 38 15 37.3284 15 36.5C15 35.6716 15.6716 35 16.5 35H31.5ZM30.3511 24.1605C30.9431 24.7525 30.9434 25.7126 30.351 26.3049L25.7248 30.9312C24.7725 31.8834 23.227 31.8832 22.275 30.9313L17.6486 26.3049C17.0567 25.7129 17.0564 24.7528 17.6488 24.1605C18.2411 23.5681 19.2012 23.5684 19.7932 24.1603L22.4839 26.8511L22.4836 11.5165C22.4835 10.679 23.1625 9.99999 24.0001 10C24.8374 10 25.5162 10.6788 25.5162 11.5161L25.5165 26.8509L28.2068 24.1606C28.7991 23.5683 29.7592 23.5685 30.3511 24.1605Z" fill="currentColor"/>
</svg>

<svg xmlns="http://www.w3.org/2000/svg" width="48" height="48" fill="none"><path id="icon" fill="currentColor" fill-rule="evenodd" d="M5 10.7A5.7 5.7 0 0 1 10.7 5h26.6a5.7 5.7 0 0 1 5.7 5.7v26.6a5.7 5.7 0 0 1-5.7 5.7H10.7A5.7 5.7 0 0 1 5 37.3zM31.5 35a1.5 1.5 0 0 1 0 3h-15a1.5 1.5 0 0 1 0-3zm-1.149-10.84a1.516 1.516 0 0 1 0 2.145l-4.626 4.626a2.44 2.44 0 0 1-3.45 0l-4.626-4.626a1.516 1.516 0 0 1 2.144-2.145l2.69 2.691V11.517a1.516 1.516 0 0 1 3.033 0V26.85l2.69-2.69a1.516 1.516 0 0 1 2.145 0" clip-rule="evenodd"/></svg>
